libs/ui/packages/crypto-icons/src/svg/SUI.svg

<svg width="24" height="24" fill="none" viewBox="0 0 512 512"><path fill="#4da2ff" fill-rule="evenodd" d="M346.1 223.9c15.6 19.6 25 44.5 25 71.5s-9.6 52.6-25.7 72.4l-1.4 1.7-.4-2.2c-.3-1.8-.7-3.7-1.1-5.6-8-35.3-34.2-65.6-77.4-90.2-29.1-16.5-45.8-36.4-50.2-59-2.8-14.6-.7-29.3 3.3-41.9 4.1-12.6 10.1-23.1 15.2-29.4l16.8-20.5c2.9-3.6 8.5-3.6 11.4 0zm26.5-20.5L260.2 66c-2.1-2.6-6.2-2.6-8.3 0L139.4 203.4l-.4.5c-20.6 25.7-33 58.3-33 93.8 0 82.7 67.2 149.8 150 149.8s150-67.1 150-149.8c0-35.5-12.4-68.1-33.1-93.8zm-206.3 20.1 10-12.3.3 2.3q.3 2.7.9 5.4c6.5 34.1 29.8 62.6 68.6 84.6 33.8 19.2 53.4 41.3 59.1 65.6 2.4 10.1 2.8 20.1 1.8 28.8l-.1.5-.5.2c-15.2 7.4-32.4 11.6-50.5 11.6-63.5 0-115-51.4-115-114.8 0-27.2 9.5-52.3 25.4-71.9" clip-rule="evenodd"/></svg>

<svg width="24" height="24" viewBox="0 0 512 512" fill="none">
	<path fill-rule="evenodd" clip-rule="evenodd" d="M346.1 223.9C361.7 243.5 371.1 268.4 371.1 295.4C371.1 322.4 361.5 348 345.4 367.8L344 369.5L343.6 367.3C343.3 365.5 342.9 363.6 342.5 361.7C334.5 326.4 308.3 296.1 265.1 271.5C236 255 219.3 235.1 214.9 212.5C212.1 197.9 214.2 183.2 218.2 170.6C222.3 158 228.3 147.5 233.4 141.2L250.2 120.7C253.1 117.1 258.7 117.1 261.6 120.7L346.1 223.9ZM372.6 203.4L260.2 66C258.1 63.4 254 63.4 251.9 66L139.4 203.4L139 203.9C118.4 229.6 106 262.2 106 297.7C106 380.4 173.2 447.5 256 447.5C338.8 447.5 406 380.4 406 297.7C406 262.2 393.6 229.6 372.9 203.9L372.6 203.4ZM166.3 223.5L176.3 211.2L176.6 213.5C176.8 215.3 177.1 217.1 177.5 218.9C184 253 207.3 281.5 246.1 303.5C279.9 322.7 299.5 344.8 305.2 369.1C307.6 379.2 308 389.2 307 397.9L306.9 398.4L306.4 398.6C291.2 406 274 410.2 255.9 410.2C192.4 410.2 140.9 358.8 140.9 295.4C140.9 268.2 150.4 243.1 166.3 223.5Z" fill="#4DA2FF" />
</svg>
